images/twitter.svg

<svg width="40" height="40" viewBox="0 0 40 40" fill="none" xmlns="http://www.w3.org/2000/svg">
<path d="M40 20C40 25.5228 37.7614 30.5228 34.1421 34.1421C30.5228 37.7614 25.5228 40 20 40C14.4772 40 9.47715 37.7614 5.85786 34.1421C2.23858 30.5228 0 25.5228 0 20C0 14.4772 2.23858 9.47715 5.85786 5.85786C9.47715 2.23858 14.4772 0 20 0C25.5228 0 30.5228 2.23858 34.1421 5.85786C37.7614 9.47715 40 14.4772 40 20Z" fill="white" fill-opacity="0.1"/>
<g clip-path="url(#clip0_297046_1360)">
<path d="M32 12.5585C31.1075 12.95 30.1565 13.2095 29.165 13.3355C30.185 12.7265 30.9635 11.7695 31.3295 10.616C30.3785 11.183 29.3285 11.5835 28.2095 11.807C27.3065 10.8455 26.0195 10.25 24.6155 10.25C21.8915 10.25 19.6985 12.461 19.6985 15.1715C19.6985 15.5615 19.7315 15.9365 19.8125 16.2935C15.722 16.094 12.1025 14.1335 9.671 11.147C9.2465 11.8835 8.9975 12.7265 8.9975 13.634C8.9975 15.338 9.875 16.8485 11.183 17.723C10.3925 17.708 9.617 17.4785 8.96 17.117C8.96 17.132 8.96 17.1515 8.96 17.171C8.96 19.562 10.6655 21.548 12.902 22.0055C12.5015 22.115 12.065 22.1675 11.612 22.1675C11.297 22.1675 10.979 22.1495 10.6805 22.0835C11.318 24.032 13.127 25.4645 15.278 25.511C13.604 26.8205 11.4785 27.6095 9.1775 27.6095C8.774 27.6095 8.387 27.5915 8 27.542C10.1795 28.9475 12.7625 29.75 15.548 29.75C24.602 29.75 29.552 22.25 29.552 15.749C29.552 15.5315 29.5445 15.3215 29.534 15.113C30.5105 14.42 31.331 13.5545 32 12.5585Z" fill="#F4F4FD"/>
</g>
<defs>
<clipPath id="clip0_297046_1360">
<rect width="24" height="24" fill="white" transform="translate(8 8)"/>
</clipPath>
</defs>
</svg>

<svg xmlns="http://www.w3.org/2000/svg" width="40" height="40" fill="none"><path fill="#fff" fill-opacity=".1" d="M40 20a19.937 19.937 0 0 1-5.858 14.142A19.937 19.937 0 0 1 20 40a19.937 19.937 0 0 1-14.142-5.858A19.937 19.937 0 0 1 0 20 19.938 19.938 0 0 1 5.858 5.858 19.938 19.938 0 0 1 20 0a19.937 19.937 0 0 1 14.142 5.858A19.937 19.937 0 0 1 40 20Z"/><g clip-path="url(#a)"><path fill="#F4F4FD" d="M32 12.559c-.892.391-1.843.65-2.835.777a4.893 4.893 0 0 0 2.165-2.72 9.833 9.833 0 0 1-3.12 1.191 4.919 4.919 0 0 0-8.511 3.364c0 .39.033.766.114 1.123-4.091-.2-7.71-2.16-10.142-5.147a4.954 4.954 0 0 0-.673 2.487c0 1.704.877 3.215 2.185 4.089a4.859 4.859 0 0 1-2.223-.606v.054a4.943 4.943 0 0 0 3.942 4.835c-.4.109-.837.162-1.29.162a4.35 4.35 0 0 1-.931-.084c.637 1.948 2.446 3.38 4.597 3.427a9.886 9.886 0 0 1-6.1 2.099c-.404 0-.791-.018-1.178-.068a13.852 13.852 0 0 0 7.548 2.208c9.054 0 14.004-7.5 14.004-14.001 0-.218-.008-.428-.018-.636A9.816 9.816 0 0 0 32 12.559Z"/></g><defs><clipPath id="a"><path fill="#fff" d="M8 8h24v24H8z"/></clipPath></defs></svg>
